X: 6508
T: Cat Wants In, The
R: slide
M: 12/8
K: Amajor
|:A3 Ace f2e a2e|f2e c2e f2e c3|
A3 Ace f2e a2e|fga e2a c2A A2e:|
|:f3 f2e faf faf|efe c2A B3 B2e|
f3 f2e faf faf|efe c2B (A3 A2)e:|

